!!!!SEGMENT: pl-wn--mus-iii-109-578_badarzewska-tekla--wspomnienie-rodzinnej-chatki.krn
!!!cenid: 18xx:3538
!!!COM: Bądarzewska, Tekla
!!!COM-rismid: pe30005936
!!!CDT:
!!!CNT:
!!!OTL: Wspomnienie Rodzinnej Chatki
!!!PDT:
!!!AGN:
!!!SMS-siglum: PL-Wn
!!!SMS-shelfmark: Mus.III.109.578
!!!SMS-shelfwork: W
!!!SMS-variant:
!!!SMS-altvar:
!!!NIFC-rismid:
!!!URL-scan: https://polona.pl/item/wspomnienie-rodzinnej-chatki-souvenir-a-ma-chaumiere,MTk4NjcwNQ/2/#info:metadata
!!!ONB-nifc:
!!!key: A-
**kern	**kern
*part1	*part1
*staff2	*staff1
*>[A,B,B,C,D,D1,D,D2,A]	*[A,B,B,C,D,D1,D,D2,A]
*>A	*>A
*I"PIANO.	*I"PIANO.
*Ipiano	*Ipiano
*ICklav	*ICklav
*clefF4	*clefG2
*k[b-e-a-d-]	*k[b-e-a-d-]
*A-:	*A-:
*M4/4	*M4/4
*met(c)	*met(c)
=1	=1
*	*ped
!	!LO:TUP:a:problem=klamra łukowa
4A- 4AA-\	12ee-L 12e-\
.	12aa- 12a-\
.	12cccJ 12cc\
4c 4A- 4E-\	4.eee- 4.ee-\
4c 4A- 4E-\	.
.	8r
4c 4A- 4E-\	4r
*	*Xped
=2	=2
*	*ped
4A- 4AA-\	16ee-LL 16e-\
.	16aa- 16a-\
.	16ccc 16cc\
.	16eee-JJ 16ee-\
4c 4A- 4E-\	4.aaa- 4.aa-\
4c 4A- 4E-\	.
.	8r
4c 4A- 4E-\	4r
*	*Xped
=3	=3
*	*ped
4E- 4EE-/	2ggg 2gg\
4d- 4B- 4G\	.
!	!LO:TUP:a:problem=klamra łukowa
4d- 4B- 4G\	12r
.	12fffL 12ff\
.	12eee-J 12ee-\
4d- 4B- 4G\	8bb-L 8b-\
.	16ddd-L 16dd-\
.	16cccJJ 16cc\
!!LO:LB:g=original
=4	=4
4A- 4AA-\	2.aa- 2.cc 2.a-\
4c 4A- 4E-\	.
4c 4A- 4E-\	.
4c 4A- 4E-\	4r
=5	=5
*	*ped
!	!LO:TUP:a:problem=klamra łukowa
4c 4A- 4F\	12ffL 12f\
.	12aa- 12a-\
.	12cccJ 12cc\
4c 4A- 4F\	4.fff 4.ff\
4c 4A- 4F\	.
.	8r
4c 4A- 4F\	4r
*	*Xped
=6	=6
*	*ped
!	!LO:N:vis=4
4An 4F#X\	4.cc 4.c/
4A 4F#\	.
.	16ee-LL 16e-\
.	16ccJJ 16c\
!	!LO:TUP:a
4c 4A 4F#\	(24ff#XLL 24f#X\
.	24ee- 24e-\
.	24aan 24an\
.	24ff# 24f#\
.	24ccc 24cc\
.	24aaJJ 24a\
4e- 4c 4A 4F#\	4eee- 4ee-\)
!!LO:LB:g=original
=7	=7
!	!LO:TX:t=P:global:problem=arpeggio między systemami
2G: 2BB-:\	2b-: 2e-: 2B-:/
2E-: 2EE-:/	4.cc: 4.e-: 4.d-: 4.B-:/
.	8b-/
=8	=8
1d- 1E-;	1ee- 1g;
*	*Xped
=9|!	=9|!
*	*ped
!	!LO:TX:a:t=[segno]:problem=znak segno nad kreską taktową
!LO:TX:b:t=[segno]:problem=znak segno pod kreską taktową	!LO:TX:b:B:t=espressione.
8A- 8AA-\	4ee-\
*clefG2	*
8e-/L	.
8cc 8a-/	4r
8e-/J	.
*clefF4	*
8A-L 8AA-\	16ddn\LL
.	16ee-\
*clefG2	*
8e-\	16ff\
.	16gg\JJ
8cc 8a-\	16aa-\LL
.	16bb-\
8e-\J	16ccc\
.	16ddd-X\JJ
*clefF4	*Xped
=10	=10
*	*ped
8E-\L	4.fff\
8B-\	.
8g 8e-\	.
8B-\J	8eee-\
8E-\L	4bb-\
8B-\	.
8g 8e-\	4r
*	*Xped
8B-\J	.
!!LO:PB:g=original
=11	=11
*	*ped
.	8qbb-/
8E-\L	4bb-\
8B-\	.
8g 8e-\	4r
8B-\J	.
8E-\L	16bb-\LL
.	16ccc\
8B-\	16ddd-\
.	16dddn\JJ
8g 8e-\	16eee-\LL
.	16fff\
8B-\J	16eee-\
*	*Xped
.	16ddd\JJ
*clefG2	*
=12	=12
*	*ped
.	8qdddn/
8A-/L	4.fff\
8e-/	.
8cc 8a-/	.
8e-/J	8eee-\
8A-/L	4aa- 4cc\
8e-/	.
8cc 8a-/	4r
*	*Xped
8e-/J	.
=13	=13
*	*ped
8A-/L	4aa-\
8e-/	.
8cc 8a-/	4r
8e-/J	.
8A-/L	16ccc\LL
.	16bb-\
8e-/	16aa-\
.	16gg\JJ
8cc 8a-/	16ff\LL
.	16ee-\
8e-/J	16dd-\
.	16cc\JJ
*clefF4	*Xped
!!LO:LB:g=original
=14	=14
*	*ped
8BB-\L	4.b-\
8B-\	.
8f 8d-\	.
8B-\J	8cc\
8BB-\L	2ff 2dd-\
8B-\	.
8f 8d-\	.
8B-\J	.
*	*Xped
=15	=15
*	*ped
8E-\L	4cc 4a-\
8e-\	.
8c\	4ee- 4a-\
8A-\J	.
8E-\L	4gg 4dd- 4b- 4g\
8B-\	.
8e-\	4bb- 4gg 4dd-\
8g\J	.
*	*Xped
=16	=16
8EE-\L	2bb- 2dd- 2b-\
8B-\	.
8e-\	.
8g\J	.
.	16qqccc/LL
.	16qqbb-/JJ
2AA- 2AAA-/	2aa- 2cc 2a-\
*	*clefF4
!!LO:LB:g=original
=17	=17
!	!LO:TX:b:B:t=trem
32EE-/LLL	32B-LLL 32G\
32BB-/	32E-\
32EE-/	32B- 32G\
32BB-/	32E-\
32EE-/	32B- 32G\
32BB-/	32E-\
32EE-/	32B- 32G\
32BB-/JJJ	32E-\JJJ
32EE-/LLL	32B-LLL 32G\
32BB-/	32E-\
32EE-/	32B- 32G\
32BB-/	32E-\
32EE-/	32B- 32G\
32BB-/	32E-\
32EE-/	32B- 32G\
32BB-/JJJ	32E-\JJJ
2BB- 2EE-/	2e- 2B- 2G 2E-\
=18	=18
*	*ped
32EE-/LLL	32e-LLL 32B- 32G\
32BB-/	32D-\
32EE-/	32e- 32B- 32G\
32BB-/	32D-\
32EE-/	32e- 32B- 32G\
32BB-/	32D-\
32EE-/	32e- 32B- 32G\
32BB-/JJJ	32D-\JJJ
32EE-/LLL	32e-LLL 32B- 32G\
32BB-/	32D-\
32EE-/	32e- 32B- 32G\
32BB-/	32D-\
32EE-/	32e- 32B- 32G\
32BB-/	32D-\
32EE-/	32e- 32B- 32G\
32BB-/JJJ	32D-\JJJ
2E- 2BB- 2EE-;/	2g 2e- 2d- 2B-;\
*	*Xped
.	.
*	*clefG2
!!LO:LB:g=original
=19||	=19||
!!!OMD: Andante.
*>B	*>B
*M3/4	*M3/4
!LO:TX:b:t=[segno]:problem=znak segno pod kreską taktową	!LO:TX:a:t=[segno]:problem=znak segno nad kreską taktową
4r	8cccL 8cc\
.	8ddd-J 8dd-\
=20	=20
*	*ped
4E- 4EE-/	8cccL 8cc\
.	8bb-J 8b-\
4g 4e- 4d- 4B-\	4.fff 4.ff^\
4g 4e- 4d- 4B-\	.
.	8fff 8ff\
=21	=21
4A- 4AA-\	8.fffL 8.ff\
.	16eee-Jk 16ee-\
4a- 4e- 4c\	4.ccc 4.cc\
4a- 4e- 4c\	.
.	8ccc 8cc\
*	*Xped
=22	=22
*	*ped
4E- 4EE-/	8cccL 8cc\
.	8bb-J 8b-\
4g 4e- 4d- 4B-\	4aaa- 4aa-^\
4g 4e- 4d- 4B-\	8.gggL 8.gg\
*	*Xped
.	16fffJk 16ff\
!!LO:PB:g=original
=23	=23
*	*ped
4A- 4AA-\	8fffL 8ff\
.	8eee-J 8ee-\
4a- 4e- 4c\	4ccc 4cc\
4a- 4e- 4c\	4r
*	*Xped
=24	=24
*	*ped
4A- 4AA-\	8ccccL 8ccc^\
.	8bbb-J 8bb-\
4a- 4e- 4c\	4.aaa- 4.aa-\
4a- 4e- 4c\	.
.	8ggg 8gg\
*	*Xped
=25	=25
*	*ped
4D- 4DD-/	8aaa-L 8aa-^\
.	8aaa-J 8aa-\
*clefG2	*
4b- 4d- 4B-/	4.ggg 4.gg\
4b- 4d- 4B-/	.
.	8fff 8ff\
*clefF4	*
!!LO:LB:g=original
=26	=26
4E- 4EE-/	8fffL 8ff^\
.	8fffJ 8ff\
4g 4e- 4d- 4B-\	4.eee- 4.ee-\
4g 4e- 4d- 4B-\	.
.	8gg 8g\
*	*Xped
=27	=27
4e- 4c 4A-\	4aa- 4a-\
4AA- 4AAA-/	4aaa- 4eee- 4ccc 4aa-\
4r	4r
=28:|!	=28:|!
*>C	*>C
*	*ped
4E- 4EE-/	16eeee-LL 16eee-\
.	16dddd- 16ddd-\
.	16bbb- 16bb-\
.	16gggJJ 16gg\
4g 4e- 4d- 4B-\	16eee-LL 16ee-\
.	16ddd- 16dd-\
.	16bb- 16b-\
.	16ggJJ 16g\
4g 4e- 4d- 4B-\	16ggLL 16g\
.	16bb- 16b-\
.	16ddd- 16dd-\
.	16eee-JJ 16ee-\
!!LO:LB:g=original
=29	=29
4g 4e- 4d- 4B-\	4fff 4ff\
4g 4e- 4d- 4B-\	4r
4g 4e- 4d- 4B-\	8r
.	8eee- 8ee-\
*	*Xped
=30	=30
*	*ped
4A- 4AA-\	8cccL 8cc\
.	8ddd-J 8dd-\
4a- 4e- 4c\	4.eee- 4.ee-\
4a- 4e- 4c\	.
.	8eee- 8ee-\
*	*Xped
=31	=31
*	*ped
4A- 4AA-\	8eee-L 8ee-\
.	8ccc 8cc\
4a- 4e- 4c\	8aaa- 8aa-\
.	8ggg 8gg\
!	!LO:N:vis=8
4a- 4e- 4c\	8.fff 8.ff\
.	16eee-Jk 16ee-\
*	*Xped
!!LO:LB:g=original
=32	=32
*	*ped
4E- 4EE-/	8gggL 8gg\
.	8fffJ 8ff\
4g 4e- 4d- 4B-\	4bb- 4b-\
4g 4e- 4d- 4B-\	4r
*	*Xped
=33	=33
*	*ped
4E- 4EE-/	8bb-L 8b-\
.	8cccJ 8cc\
4g 4e- 4d- 4B-\	4.ddd- 4.dd-\
4g 4e- 4d- 4B-\	.
.	8gg 8g\
=34	=34
4e- 4c 4A-\	4aa- 4a-\
4AA-/	4r
*	*Xped
.	.
4r	4r
!!LO:PB:g=original
=35|!	=35|!
!!!OMD: Brillante.
*M4/4	*M4/4
*met(c)	*met(c)
*	*ped
!	!LO:TUP:a:problem=klamra łukowa
!LO:TX:b:t=[segno]:problem=znak segno pod kreską taktową	!LO:TX:a:t=[segno]:problem=znak segno nad kreską taktową
4A- 4AA-\	12r
.	12cccL 12cc\
.	12ddd-J 12dd-\
*	*Xtuplet
4a- 4e- 4c\	12dddnL 12ddn\
.	12.eee- 12.ee-\
.	24eee-Jk 24ee-\
4a- 4e- 4c\	4eee- 4ee-\
4a- 4e- 4c\	20r
.	(40bbb-\LLL
.	40aaa-\
.	40ggg\
.	40fff\
.	40eee-\
!	!LO:SIC:v:s=40ddd-\
.	40ddd\
.	40ccc\
.	40bb-\JJJ)
*	*Xped
=36	=36
*	*ped
*	*tuplet
*	*Xbrackettup
!	!LO:TUP:a
4E- 4EE-/	12bb-\
.	12bb-L 12b-\
.	12cccJ 12cc\
*	*Xtuplet
4g 4e- 4d- 4B-\	12ddd-L 12dd-\
.	12.eee- 12.ee-\
.	24eee-Jk 24ee-\
4g 4e- 4d- 4B-\	4eee- 4ee-\
4g 4e- 4d- 4B-\	4r
*	*Xped
!!LO:LB:g=original
=37	=37
*	*ped
*	*tuplet
*	*brackettup
!	!LO:TUP:a:problem=klamra łukowa
4E- 4EE-/	12r
.	12bb-L 12b-\
.	12cccJ 12cc\
*	*Xtuplet
4g 4e- 4d- 4B-\	12ddd-L 12dd-\
.	12.eee- 12.ee-\
.	24eee-Jk 24ee-\
4g 4e- 4d- 4B-\	4eee- 4ee-\
4g 4e- 4d- 4B-\	20r
.	(40bbb-\LLL
.	40aaa-\
.	40ggg\
.	40fff\
.	40eee-\
.	40ddd-\
.	40ccc\
.	40bb-\JJJ)
*	*Xped
=38	=38
*	*ped
4A- 4AA-\	12r
.	12cccL 12cc\
.	12ddd-J 12dd-\
4a- 4e- 4c\	12dddnL 12ddn\
.	12.eee- 12.ee-\
.	24eee-Jk 24ee-\
4a- 4e- 4c\	4eee- 4ee-\
4a- 4e- 4c\	4r
*	*Xped
!!LO:LB:g=original
=39	=39
*	*ped
4A- 4AA-\	12r
.	12cccL 12cc\
.	12ddd-J 12dd-\
4a- 4e- 4c\	12dddnL 12ddn\
.	12.eee- 12.ee-\
.	24eee-Jk 24ee-\
4a- 4e- 4c\	4eee- 4ee-\
4a- 4e- 4c\	(40bbb-\LLL
.	40aaa-\
.	40ggg\
.	40fff\
.	40eee-\
!	!LO:SIC:v:s=40ddd-\
.	40ddd\
.	40ccc\
.	40bb-\
.	40aa-\
.	40gg\JJJ)
*	*Xped
=40	=40
*	*ped
4d- 4D-\	12fffL 12ff\
.	12fff 12ff\
.	12fffJ 12ff\
4a- 4f 4d-\	12fffL 12ff\
.	12ggg 12gg\
.	12aaa-J 12aa-\
4a- 4f 4d-\	12aaa-L 12aa-\
.	12aaa- 12aa-\
.	12aaa-J 12aa-\
4a- 4f 4d-\	12aaa-L 12aa-\
.	12ggg 12gg\
.	12fffJ 12ff\
*	*Xped
!!LO:LB:g=original
=41	=41
*	*ped
4e- 4E-\	12r
.	12fffL 12ff\
.	12fffJ 12ff\
4a- 4e- 4c\	12fffL 12ff\
.	12eee- 12ee-\
.	12cccJ 12cc\
4e- 4E-\	12r
.	12eee-L 12ee-\
.	12eee-J 12ee-\
4g 4d- 4B-\	12eee-L 12ee-\
.	12ddd- 12dd-\
.	12bb-J 12b-\
*	*Xped
=42	=42
*Xtuplet	*ped
12cL 12A-\	4aa- 4a-\
12e-\	.
12c\J	.
12A-\L	4r
12E-\	.
12C\J	.
4AA-/	4r
4r	8.ggL 8.g\
!	!LO:TX:a:t=[segno]:problem=znak segno nad kreską taktową
.	16ffJk 16f\
*	*Xped
!!LO:PB:g=original
=43!|:	=43!|:
*>D	*>D
*	*ped
4E- 4EE-/	12ee-L 12e-\
.	12gg 12g\
.	12bb-J 12b-\
4d- 4B- 4G 4E-\	12eee-L 12ee-\
.	12ggg 12gg\
.	12bbb-J 12bb-\
4E- 4EE-/	12dddd-L 12ddd-\
.	12cccc 12ccc\
.	12bbb-J 12bb-\
4d- 4B- 4G 4E-\	12aaa-L 12aa-\
.	12ggg 12gg\
.	12fffJ 12ff\
*	*Xped
=44	=44
*	*ped
4A- 4AA-\	12fffL 12ff\
.	12eee- 12ee-\
.	12dddnJ 12ddn\
4a- 4e- 4c\	12eee-L 12ee-\
.	12.cccc 12.ccc\
.	24aaa-Jk 24aa-\
4a- 4e- 4c\	4eee- 4ee-\
4a- 4e- 4c\	4r
*	*Xped
!!LO:LB:g=original
=45	=45
*	*ped
4E- 4EE-/	12ee-L 12e-\
.	12gg 12g\
.	12bb-J 12b-\
4d- 4B- 4G 4E-\	12eee-L 12ee-\
.	12ggg 12gg\
.	12bbb-J 12bb-\
4E- 4EE-/	12dddd-L 12ddd-\
.	12cccc 12ccc\
.	12bbb-J 12bb-\
4d- 4B- 4G 4E-\	12aaa-L 12aa-\
.	12ggg 12gg\
.	12fffJ 12ff\
*	*Xped
=46	=46
*	*ped
4A- 4AA-\	12fffL 12ff\
.	12eee- 12ee-\
.	12dddnJ 12ddn\
4a- 4e- 4c\	12eee-L 12ee-\
.	12.cccc 12.ccc\
.	24aaa-Jk 24aa-\
4a- 4e- 4c\	4eee- 4ee-\
4a- 4e- 4c\	4r
*	*Xped
!!LO:LB:g=original
=47	=47
*	*ped
4A- 4AA-\	12cccL 12cc\
.	12ddd- 12dd-\
.	12dddnJ 12ddn\
4a- 4e- 4c\	12eee-L 12ee-\
.	12eee- 12ee-\
.	12eee-J 12ee-\
4a- 4e- 4c\	12eee-L 12ee-\
.	12eee- 12ee-\
.	12eee-J 12ee-\
4a- 4e- 4c\	12eee-L 12ee-\
.	12fff 12ff\
.	12gggJ 12gg\
=48	=48
*	*ped
4d- 4D-\	12aaa-L 12aa-\
.	12aaa- 12aa-\
.	12aaa-J 12aa-\
4b- 4f 4d-\	12aaa-L 12aa-\
.	12aaa- 12aa-\
.	12aaa-J 12aa-\
4b- 4f 4d-\	12aaa-L 12aa-\
.	12aaa- 12aa-\
.	12aaa-J 12aa-\
4b- 4f 4d-\	12aaa-L 12aa-\
.	12ggg 12gg\
.	12fffJ 12ff\
*	*Xped
!!LO:LB:g=original
=49	=49
*	*ped
4e- 4E-\	12fffL 12ff\
.	12fff 12ff\
.	12fffJ 12ff\
4a- 4e- 4c\	12fffL 12ff\
.	12eee- 12ee-\
.	12cccJ 12cc\
4e- 4E-\	12eee-L 12ee-\
.	12eee- 12ee-\
.	12eee-J 12ee-\
4g 4e- 4d- 4B-\	12eee-L 12ee-\
.	12ddd- 12dd-\
.	12bb-J 12b-\
*	*Xped
=50	=50
!LO:TX:t=I.	!
*>D1	*>D1
*	*ped
12e-L 12c 12A-\	2.aa- 2.cc 2.a-\
12e-\	.
12c\J	.
12A-\L	.
!LO:TX:a:B:t=D.C. al Segno.	!
12E-\	.
12C\J	.
4AA-/	.
4r	8.ggL 8.g\
.	16ffJk 16f\
*	*Xped
=51:|!	=51:|!
!LO:TX:t=II.	!
*>D2	*>D2
!LO:TX:b:t=[segno]:problem=znak segno pod kreską taktową	!LO:TX:a:t=[segno]:problem=znak segno nad kreską taktową
4A- 4AA-\	4aa- 4cc 4a-\
4..AA- 4..AAA-/	4..ccc 4..ee- 4..cc\
16A- 16E- 16AA-\	16a- 16e- 16c/
!LO:TX:b:B:t=Fine.	!
4A- 4E- 4AA-\	4a- 4e- 4c/
!LO:TX:t=P:problem=zbędna pauza 4r	!LO:TX:t=P:problem=zbędna pauza 4r
4r	4r
==	==
*-	*-
!!!system-decoration: {(*)}
!!!RDF**kern: > = above
!!!RDF**kern: < = below
!!!ENC: Andrzej Kubiczek
!!!END: 2022-02-07
!!!AIN: 1 piano
!!!ENC: Andrzej Kubiczek
!!!END: 2022-02-11
